X:0319
T:Johnny Macgill.
M:6/8
L:1/8
Q:3/8=120
I: :: ::
Z:Jack Campin * www.campin.me.uk * 2009
K:E Minor
g|dBB BAG|dBB B2g|dBB BAB|GEE E2
g|dBB BAG|dBB BAG|A3  BAB|GEE E2:|
f|g3  aga|bge dBG|g3  aga|bge ega|
  bgb afa|gef g2e|dBB BAB|GEE E2:|

